X:1
T:Pray for Your Boy Tonight
T:Pray for Your Boy Tonight
T:George Robert Cairns
T:Mrs. T. M. Griffin, 1898
T:Public Domain Courtesy of the Cyber Hymnal™
T:Public Domain Courtesy of the Cyber Hymnal™
C:George Robert Cairns
Z:Public Domain
Z:Courtesy of the Cyber Hymnal™
%%score 1 2 ( 3 4 )
L:1/8
Q:1/4=80
M:6/8
K:F
V:1 treble 
V:2 treble 
V:3 bass 
V:4 bass 
V:1
"^Solo" ccc c2 B | A2 A A2 A/A/ | (GG)G (GA)B | A3- A2 z | AAA A2 (G/G/) | F2 E D2 (D/D/) | %6
w: 1.~Once I was pure as|dews that fall From the|morn- * ing clouds * a-|bove. *|Now I am held in~the *|world’s dark thrall, A- *|
w: 2.~Wea- ry the world, and|dark and wild, And with|many * a fa- * tal|snare, *|As on- ward sweeps the *|surg- ing tide, A- *|
w: 3.~Mo- ther, my heart is|hard and cold, And is|blighted * with grief * and|care; *|Pray for your boy as *|oft of old, When~a *|
w: 4.~Tho’ in the toils of|sin your boy Yet is|wander- * ing far * from|home, *|Oft- en he yearns for~the *|old- en joy, Be- *|
 (CF)A c2 E | F3- F2 ||"^Refrain" [Fc] | [Fd][Fd][Fd] [Fc]2 [FA] | [Ac]3- [Ac]2 [Ac] | %11
w: way~from * the Fa- ther’s|love. *||||
w: way * from God and|prayer. *|Then|pray for your boy to-|night! * To-|
w: child * be- side your|chair. *||||
w: fore~he * be- gan to|roam. *||||
 [Af]2 [Fc] [Fd]2 [EB] | [FA]3- [FA]2 [FA] | [EG]2 [EG] [EG]2 [EG] | ([EG][FA])[GB] [FA]2 [FA] | %15
w: ||||
w: night, oh, pray for|me! * Pray|God to give your|boy * the light, To|
w: ||||
w: ||||
 [DF][CF][CE] [CF]!fermata![CA]>[CG] | [CF]6 |] %17
w: ||
w: lead him to Hea- ven and|Thee.|
w: ||
w: ||
V:2
"^Organ" z [CFA][CFA] z [CEGB][CEGB] | z A,C (FC)A, | z [CEG][CEG] ([CEG][CFA])[CGB] | %3
 ([CFA][CFA][CFA] [CFA]2) z | z [CFA][CFA] [CFA]2 z | [A,DF]2 [A,^CE] [F,B,D]2 [F,B,D] | %6
 z [CFA][CFA] z [CEG][B,CE] | ([A,CF][A,CF][A,CF] [A,CF]2) || x | x6 | x6 | x6 | x6 | x6 | x6 | %15
 x6 | x6 |] %17
V:3
 [F,,F,]2 z [C,,C,]2 z | [F,,F,]2 z4 | [C,,C,]2 z [C,,C,]2 z | ([F,,F,][F,,F,][F,,F,] [F,,F,]2) z | %4
 [F,,F,]2 z [F,,F,]2 [C,,C,] | [D,,D,]2 A,, [B,,,B,,]2 [B,,,B,,] | [C,,C,]2 z [C,,C,]2 z | %7
 ([F,,F,][F,,F,][F,,F,] [F,,F,]2) || [F,A,] | [B,,B,][B,,B,][B,,B,] [F,A,]2 [F,C] | %10
 [F,C]3- [F,C]2 [F,C] | C2 [F,A,] [B,,B,]2 [B,,G,] | F,3- F,2 [F,C] | [C,E]2 [C,E] [C,E]2 [C,E] | %14
 [C,E]2 [C,E] [F,C]2 [F,C] | [C,B,][C,A,][C,G,] [C,A,]!fermata![C,C]>[C,B,] | [F,,F,A,]6 |] %17
V:4
 x6 | x6 | x6 | x6 | x6 | x6 | x6 | x5 || x | x6 | x6 | x6 | F,3- F,2 x | x6 | x6 | x6 | x6 |] %17

